X: 6
T: Captain O'Kane
R: jig
M: 6/8
L: 1/8
K: Emin
|:ED|B,EF G2 F/E/ | F/G/A/G/F/E/ DEF | GBG B/A/G/F/E/D/ | B,EE E2 E/D/|
B,EF G2 F/E/ | F/G/A/G/F/E/ DEF | GBG B/A/G/F/E/D/ | B,EE E2:||
|:EF| GBB B2 A/G/ | FAA A2 d/c/ | B>e^d e>fg | Be^d e2 e/f/ |
gfe d>cB | AFd DEF | GBG B/A/G/F/E/D/ | B,EE E2:||


Tune 858	Setting 14027

